X: 33893
T: Red Kites
R: reel
M: 4/4
K: Eminor
B,4 (E2F2)|G3(A/G/ F2)E2|(F2G2)A2.d2|B6 A2|
G4 (E2G2)|(F2G2)F2D2|(D2E2)E2F2|(E2F2)(E2C2)|
B,4 (E2F2)|G3(A/G/ F2)E2|(F2G2)A2.d2|d8|
B6 .c2|B2A2G2F2|1 (G2E2)E2F2|(E2F2)(E2C2):|2 (G2E2)(E2F2)|E8||
E6 F2|G8|F6 G2|A8|
G4 .e2.B2|(c2B2).A2G2|1 A6 .B2|(A2G2)(F2D2):|2 (d2B2).A2F2|E8||

